app/assets/img/work/ttl-pcp-sp.svg

<svg fill="none" height="21" viewBox="0 0 50 21" width="50" xmlns="http://www.w3.org/2000/svg"><path d="m4.954 13.669v6.331h-4.394v-18.941h6.682c1.33467 0 2.47867.16033 3.432.481.962.312 1.7507.74533 2.366 1.3.624.55467 1.0833 1.209 1.378 1.963s.442 1.56867.442 2.444c0 .94467-.1517 1.81133-.455 2.6-.3033.7887-.767 1.4647-1.391 2.028s-1.417 1.0053-2.379 1.326c-.95333.312-2.08433.468-3.393.468zm0-3.315h2.288c1.144 0 1.96733-.273 2.47-.819.5027-.546.754-1.30867.754-2.288 0-.43333-.065-.82767-.195-1.183s-.32933-.65867-.598-.91c-.26-.26-.59367-.45933-1.001-.598-.39867-.13867-.87533-.208-1.43-.208h-2.288zm25.1731 4.745c.104 0 .208.0217.312.065.104.0347.2036.0997.299.195l1.742 1.833c-.7627.9967-1.7204 1.7507-2.873 2.262-1.144.5027-2.5004.754-4.069.754-1.4387 0-2.73-.2427-3.874-.728-1.1354-.494-2.1017-1.17-2.899-2.028-.7887-.8667-1.3954-1.8893-1.82-3.068-.4247-1.1873-.637-2.4743-.637-3.861 0-1.41267.2426-2.70833.728-3.887.4853-1.18733 1.1613-2.21 2.028-3.068.8753-.858 1.9196-1.52533 3.133-2.002 1.2133-.47667 2.5523-.715001 4.017-.715001.7106 0 1.378.065 2.002.195001.6326.12133 1.222.29467 1.768.52.546.21667 1.0486.481 1.508.793.4593.30333.8666.64133 1.222 1.014l-1.482 1.989c-.0954.12133-.208.234-.338.338-.13.09533-.312.143-.546.143-.156 0-.3034-.03467-.442-.104-.1387-.06933-.286-.15167-.442-.247-.156-.104-.3294-.21233-.52-.325-.182-.12133-.403-.22967-.663-.325-.2514-.104-.5504-.19067-.897-.26-.338-.06933-.7367-.104-1.196-.104-.7974 0-1.5254.143-2.184.429-.6587.27733-1.2264.68033-1.703 1.209-.468.52-.8364 1.15267-1.105 1.898-.26.74533-.39 1.58167-.39 2.509 0 .9707.13 1.833.39 2.587.2686.754.6283 1.391 1.079 1.911.4593.5113.9923.9013 1.599 1.17.6066.2687 1.2566.403 1.95.403.3986 0 .7626-.0173 1.092-.052.3293-.0433.6326-.1127.91-.208.286-.0953.5546-.2167.806-.364.26-.156.52-.3467.78-.572.104-.0867.2166-.156.338-.208.1213-.0607.247-.091.377-.091zm9.0149-1.43v6.331h-4.394v-18.941h6.682c1.3346 0 2.4786.16033 3.432.481.962.312 1.7506.74533 2.366 1.3.624.55467 1.0833 1.209 1.378 1.963.2946.754.442 1.56867.442 2.444 0 .94467-.1517 1.81133-.455 2.6-.3034.7887-.767 1.4647-1.391 2.028s-1.417 1.0053-2.379 1.326c-.9534.312-2.0844.468-3.393.468zm0-3.315h2.288c1.144 0 1.9673-.273 2.47-.819.5026-.546.754-1.30867.754-2.288 0-.43333-.065-.82767-.195-1.183s-.3294-.65867-.598-.91c-.26-.26-.5937-.45933-1.001-.598-.3987-.13867-.8754-.208-1.43-.208h-2.288z" fill="#121111"/></svg>

<svg width="50" height="21" viewBox="0 0 50 21" fill="none" xmlns="http://www.w3.org/2000/svg">
<path d="M4.954 13.669V20H0.56V1.059H7.242C8.57667 1.059 9.72067 1.21933 10.674 1.54C11.636 1.852 12.4247 2.28533 13.04 2.84C13.664 3.39467 14.1233 4.049 14.418 4.803C14.7127 5.557 14.86 6.37167 14.86 7.247C14.86 8.19167 14.7083 9.05833 14.405 9.847C14.1017 10.6357 13.638 11.3117 13.014 11.875C12.39 12.4383 11.597 12.8803 10.635 13.201C9.68167 13.513 8.55067 13.669 7.242 13.669H4.954ZM4.954 10.354H7.242C8.386 10.354 9.20933 10.081 9.712 9.535C10.2147 8.989 10.466 8.22633 10.466 7.247C10.466 6.81367 10.401 6.41933 10.271 6.064C10.141 5.70867 9.94167 5.40533 9.673 5.154C9.413 4.894 9.07933 4.69467 8.672 4.556C8.27333 4.41733 7.79667 4.348 7.242 4.348H4.954V10.354ZM30.1271 15.099C30.2311 15.099 30.3351 15.1207 30.4391 15.164C30.5431 15.1987 30.6427 15.2637 30.7381 15.359L32.4801 17.192C31.7174 18.1887 30.7597 18.9427 29.6071 19.454C28.4631 19.9567 27.1067 20.208 25.5381 20.208C24.0994 20.208 22.8081 19.9653 21.6641 19.48C20.5287 18.986 19.5624 18.31 18.7651 17.452C17.9764 16.5853 17.3697 15.5627 16.9451 14.384C16.5204 13.1967 16.3081 11.9097 16.3081 10.523C16.3081 9.11033 16.5507 7.81467 17.0361 6.636C17.5214 5.44867 18.1974 4.426 19.0641 3.568C19.9394 2.71 20.9837 2.04267 22.1971 1.566C23.4104 1.08933 24.7494 0.850999 26.2141 0.850999C26.9247 0.850999 27.5921 0.915999 28.2161 1.046C28.8487 1.16733 29.4381 1.34067 29.9841 1.566C30.5301 1.78267 31.0327 2.047 31.4921 2.359C31.9514 2.66233 32.3587 3.00033 32.7141 3.373L31.2321 5.362C31.1367 5.48333 31.0241 5.596 30.8941 5.7C30.7641 5.79533 30.5821 5.843 30.3481 5.843C30.1921 5.843 30.0447 5.80833 29.9061 5.739C29.7674 5.66967 29.6201 5.58733 29.4641 5.492C29.3081 5.388 29.1347 5.27967 28.9441 5.167C28.7621 5.04567 28.5411 4.93733 28.2811 4.842C28.0297 4.738 27.7307 4.65133 27.3841 4.582C27.0461 4.51267 26.6474 4.478 26.1881 4.478C25.3907 4.478 24.6627 4.621 24.0041 4.907C23.3454 5.18433 22.7777 5.58733 22.3011 6.116C21.8331 6.636 21.4647 7.26867 21.1961 8.014C20.9361 8.75933 20.8061 9.59567 20.8061 10.523C20.8061 11.4937 20.9361 12.356 21.1961 13.11C21.4647 13.864 21.8244 14.501 22.2751 15.021C22.7344 15.5323 23.2674 15.9223 23.8741 16.191C24.4807 16.4597 25.1307 16.594 25.8241 16.594C26.2227 16.594 26.5867 16.5767 26.9161 16.542C27.2454 16.4987 27.5487 16.4293 27.8261 16.334C28.1121 16.2387 28.3807 16.1173 28.6321 15.97C28.8921 15.814 29.1521 15.6233 29.4121 15.398C29.5161 15.3113 29.6287 15.242 29.7501 15.19C29.8714 15.1293 29.9971 15.099 30.1271 15.099ZM39.142 13.669V20H34.748V1.059H41.43C42.7646 1.059 43.9086 1.21933 44.862 1.54C45.824 1.852 46.6126 2.28533 47.228 2.84C47.852 3.39467 48.3113 4.049 48.606 4.803C48.9006 5.557 49.048 6.37167 49.048 7.247C49.048 8.19167 48.8963 9.05833 48.593 9.847C48.2896 10.6357 47.826 11.3117 47.202 11.875C46.578 12.4383 45.785 12.8803 44.823 13.201C43.8696 13.513 42.7386 13.669 41.43 13.669H39.142ZM39.142 10.354H41.43C42.574 10.354 43.3973 10.081 43.9 9.535C44.4026 8.989 44.654 8.22633 44.654 7.247C44.654 6.81367 44.589 6.41933 44.459 6.064C44.329 5.70867 44.1296 5.40533 43.861 5.154C43.601 4.894 43.2673 4.69467 42.86 4.556C42.4613 4.41733 41.9846 4.348 41.43 4.348H39.142V10.354Z" fill="#121111"/>
</svg>
